X: 27120
T: Miss Mary Abercromby's
R: strathspey
M: 4/4
K: Gmajor
d/c/|:[GB]>d[FA]>d [CE]>B[B,D]>G|A,A/B/ c/B/A/G/ F>A A/e/d/c/|[GB]>d[FA]>d [CE]>B[B,D]>G|
[1 A,e/d/ c/B/A/G/ D>[B,G][B,G] d/c/:|2 A,e/d/ c/B/A/G/ D>[B,G][B,G] B/c/||
|:d>ed>B g>ag>B|c>A c/B/A/G/ F>A AB/c/|d>ed>B c>aB>G|
E.c/.B/ .A/.G/.F/.E/ D>[B,G][B,G] B/c/|d>ed>B c>aB>g|
c>A c/B/A/G/ F>A AB/c/|d>Bc>A B>GD>B,|C>G A/B/c/A/ B>G G||

